X: 33852
T: Rector At The Feis
R: reel
M: 4/4
K: Adorian
|:ef|g2 gf gedB|~g3 f gedB|ea ~a2 aged|cded ^cdef|
g3 f ge d2|eg ~g2 gedB|~e2 ag aged|(3Bcd ed ^cd:|
|:AB|cA (3AAA ~A2 eA|(3Bcd eA cdef|gd (3ddd d2 ed|(3Bcd gd ed^cd|
cA ~A2 ~A2 eA|c2 eA cdef|~g3 f gedB|dgBd cA:|"to finish" dg (3Bcd A4||

